X:545
T: "Der Gleichgueltige"
N: Z1225
O: Europa, Mitteleuropa, Deutschland, Boehmen
R: Liebes - Lied
M: 3/8
L: 1/16
K: F
c2c2c2 | A2AGAF | B2B2B2 |
c2cdcB | A2AGAc | B4z2 |
c2c2c2 | A2AGAF | B2B2B2 |
c2cdcB | A2AGAc | B4z2 |
G2G2G2 | E2C2C2 | F2FAcA |
G2GAGF | E2ECDE | F4z2

@@@ Tune index: 10303
